client/resources/iconsets/breeze/src/svg/16x16/icon_new_contact.svg

<svg xmlns="http://www.w3.org/2000/svg" width="16" height="16"><path d="M12 0v2h-1.967C10.014 2 10 2.446 10 3l.033 1H12v2h2V4h1.967c.019 0 .033-.446.033-1l-.033-1H14V0h-2zM7 1a3 3 0 1 0 0 6 3 3 0 1 0 0-6zm0 7a6 5 0 0 0-6 5 6 2 0 0 0 6 2 6 2 0 0 0 6-2 6 5 0 0 0-6-5z" fill="#6d6d70"/></svg>

<svg xmlns="http://www.w3.org/2000/svg" width="16" height="16" viewBox="0 0 16 16">
 <path style="fill:#6d6d70"
       d="M 12 0 L 12 2 L 10.033203 2 C 10.014423 2 10 2.446 10 3 C 10 3.554 10.014423 4 10.033203 4 L 12 4 L 12 6 L 14 6 L 14 4 L 15.966797 4 C 15.985577 4 16 3.554 16 3 C 16 2.446 15.985577 2 15.966797 2 L 14 2 L 14 0 L 12 0 z M 7 1 A 3 3 0 0 0 4 4 A 3 3 0 0 0 7 7 A 3 3 0 0 0 10 4 A 3 3 0 0 0 7 1 z M 7 8 A 6 5 0 0 0 1 13 A 6 2 0 0 0 7 15 A 6 2 0 0 0 13 13 A 6 5 0 0 0 7 8 z "
       />
</svg>
